svgs/sharp-solid/align-right.svg

<svg xmlns="http://www.w3.org/2000/svg" viewBox="0 0 448 512"><!--! Font Awesome Pro 6.6.0 by @fontawesome - https://fontawesome.com License - https://fontawesome.com/license (Commercial License) Copyright 2024 Fonticons, Inc. --><path d="M448 32l0 64L160 96l0-64 288 0zm0 256l0 64-288 0 0-64 288 0zM0 160l448 0 0 64L0 224l0-64zM448 416l0 64L0 480l0-64 448 0z"/></svg>

<svg xmlns="http://www.w3.org/2000/svg" viewBox="0 0 448 512"><!--! Font Awesome Pro 6.4.2 by @fontawesome - https://fontawesome.com License - https://fontawesome.com/license (Commercial License) Copyright 2023 Fonticons, Inc. --><path d="M448 32V96H160V32H448zm0 256v64H160V288H448zM0 160H448v64H0V160zM448 416v64H0V416H448z"/></svg>
